X:1
T:Title
%%score { 1 | 2 }
L:1/8
M:3/4
K:Eb
V:1 treble nm="Grand Piano"
V:2 bass 
V:1
 z2 z2[Q:1/4=94] [EG]>[FA] | [GB]3 [Ac] [GB]>[FA] | [FA]2 G2 B>B | c3 B G[B,E] |[M:2/4] [B,DF]4 | %5
[M:1/4] [B,EG]>[B,FA] |[M:3/4] [EGB]3 [Gc] [Fd][Ee] | [Ae]2 [Ad]2 [FB]F | Gc B2 =A2 | %9
[M:2/4] [DB]4 |[M:1/4] [EB]>[EB] |[M:3/4] [Ge]3 G AB | c2 c2 c>c | [Ec]3 [CEe] [Ed][Ec] | %14
[M:2/4] [EB]4 |[M:1/4] [EG]>[FA] |[M:3/4] [GB]3 c d[Ge] | [Ge]2 [EB]2 [B,EG][B,FA] | %18
 [EGB][B,EG] [G,E]2 [A,DF]2 |[M:2/4] [G,E]4 |] %20
V:2
 z2 z2 [E,B,]>[E,B,] | [E,E]3 [E,E] [E,E]>[D,B,] | [E,B,]2 [E,B,E]2 [E,G,E]>[E,G,E] | %3
 [A,E]3 [G,B,E] [E,B,E]G,, |[M:2/4] B,,4 |[M:1/4] E,>E, |[M:3/4] E,3 [E,B,] [A,B,][G,B,] | %7
 [F,B,]2 [F,B,]2 [D,B,][D,B,] | [E,B,E][E,G,E] [F,D]2 [F,CE]2 |[M:2/4] [B,,B,]4 | %10
[M:1/4] [E,G,]>[E,G,] |[M:3/4] [E,B,]3 [E,B,E] [F,B,E][G,B,E] | [A,E]2 [A,E]2 [A,E]>[A,E] | %13
 [A,,A,]3 [A,,A,] [A,,A,B,][A,,A,] |[M:2/4] [E,G,]4 |[M:1/4] [E,B,]>[E,B,] | %16
[M:3/4] [E,E]3 [A,E] [F,B,F][E,B,] | [E,B,]2 [E,G,]2 E,E, | E,E, B,,2 B,,2 |[M:2/4] E,4 |] %20

